X: 523
P: Longways for as many as will
M: 6/4
L: 1/4
K: C
c2G c2d | e>fe d>ef | (e/f/)gc d2G | ce2- e2 |] a/b/ | c'ga g2e | a>b a/g/ f>ed |
(e/f/)gc B2A | BG2- G2c | (GE)c B2c | ded/c/ B>AG | (e/f/)gc d2G | ce2- e2 |]

